src/lib/packages/icons/src/assets/filled/chart-trend-up.svg

<svg width="24" height="24" viewBox="0 0 24 24" fill="none" xmlns="http://www.w3.org/2000/svg">
<path d="M21 21H4.5C2.958 21 2 20.042 2 18.5V4C2 3.448 2.448 3 3 3C3.552 3 4 3.448 4 4V18.5C4 18.949 4.051 19 4.5 19H21C21.552 19 22 19.448 22 20C22 20.552 21.552 21 21 21ZM14 16V12C14 11.448 13.552 11 13 11C12.448 11 12 11.448 12 12V16C12 16.552 12.448 17 13 17C13.552 17 14 16.552 14 16ZM18 17C17.448 17 17 16.552 17 16V10C17 9.448 17.448 9 18 9C18.552 9 19 9.448 19 10V16C19 16.552 18.552 17 18 17ZM8 17C7.448 17 7 16.552 7 16V14C7 13.448 7.448 13 8 13C8.552 13 9 13.448 9 14V16C9 16.552 8.552 17 8 17ZM18.923 3.61804C18.822 3.37404 18.627 3.17903 18.382 3.07703C18.26 3.02603 18.13 3 18 3H15C14.448 3 14 3.448 14 4C14 4.552 14.448 5 15 5H15.586L13.668 6.91797C13.572 7.01297 13.405 7.01397 13.307 6.91797L12.157 5.76794C11.278 4.88794 9.84599 4.88794 8.96799 5.76794L7.293 7.44299C6.902 7.83399 6.902 8.46606 7.293 8.85706C7.488 9.05206 7.744 9.15002 8 9.15002C8.256 9.15002 8.512 9.05206 8.707 8.85706L10.382 7.18201C10.48 7.08401 10.646 7.08401 10.743 7.18201L11.893 8.33203C12.772 9.21103 14.203 9.21103 15.082 8.33203L17 6.41394V7C17 7.552 17.448 8 18 8C18.552 8 19 7.552 19 7V4C19 3.87 18.973 3.74004 18.923 3.61804Z" fill="currentColor"/>
</svg>

<svg xmlns="http://www.w3.org/2000/svg" width="24" height="24" fill="none"><path fill="currentColor" d="M21 21H4.5C2.958 21 2 20.042 2 18.5V4a1 1 0 0 1 2 0v14.5c0 .449.051.5.5.5H21a1 1 0 0 1 0 2Zm-7-5v-4a1 1 0 0 0-2 0v4a1 1 0 0 0 2 0Zm4 1a1 1 0 0 1-1-1v-6a1 1 0 0 1 2 0v6a1 1 0 0 1-1 1ZM8 17a1 1 0 0 1-1-1v-2a1 1 0 0 1 2 0v2a1 1 0 0 1-1 1ZM18.923 3.618A1.003 1.003 0 0 0 18 3h-3a1 1 0 0 0 0 2h.586l-1.918 1.918a.263.263 0 0 1-.361 0l-1.15-1.15a2.256 2.256 0 0 0-3.189 0L7.293 7.443a.999.999 0 1 0 1.414 1.414l1.675-1.675a.258.258 0 0 1 .361 0l1.15 1.15c.879.879 2.31.879 3.189 0L17 6.414V7a1 1 0 0 0 2 0V4c0-.13-.027-.26-.077-.382Z"/></svg>
